other/joelchrono12/ekonto.svg

<?xml version="1.0" encoding="UTF-8" standalone="no"?>
<!-- Created with Inkscape (http://www.inkscape.org/) -->

<svg
   width="48"
   height="48"
   viewBox="0 0 48 48"
   version="1.1"
   id="svg5"
   inkscape:version="1.1.1 (3bf5ae0d25, 2021-09-20)"
   sodipodi:docname="ekonto.svg"
   xmlns:inkscape="http://www.inkscape.org/namespaces/inkscape"
   xmlns:sodipodi="http://sodipodi.sourceforge.net/DTD/sodipodi-0.dtd"
   xmlns="http://www.w3.org/2000/svg"
   xmlns:svg="http://www.w3.org/2000/svg">
  <sodipodi:namedview
     id="namedview7"
     pagecolor="#505050"
     bordercolor="#eeeeee"
     borderopacity="1"
     inkscape:pageshadow="0"
     inkscape:pageopacity="0"
     inkscape:pagecheckerboard="0"
     inkscape:document-units="px"
     showgrid="false"
     units="px"
     inkscape:zoom="11.829307"
     inkscape:cx="8.66492"
     inkscape:cy="26.586511"
     inkscape:window-width="1884"
     inkscape:window-height="1025"
     inkscape:window-x="15"
     inkscape:window-y="34"
     inkscape:window-maximized="1"
     inkscape:current-layer="layer1" />
  <defs
     id="defs2" />
  <g
     inkscape:label="Layer 1"
     inkscape:groupmode="layer"
     id="layer1">
    <path
       id="path866"
       style="fill:none;stroke:#ffffff;stroke-width:1px;stroke-linecap:round;stroke-linejoin:round;stroke-opacity:1"
       d="M 11.384766 5.4960938 C 10.150069 5.4827394 8.7666247 5.8674779 7.4980469 7.1367188 C 4.1151706 10.521361 3.9199219 15.742188 3.9199219 15.742188 L 5.8535156 13.808594 L 12.302734 20.261719 L 14.185547 18.363281 L 14.185547 14.330078 L 16.392578 16.539062 L 16.392578 21.691406 L 18.605469 23.90625 L 5.4160156 37.103516 L 10.810547 42.5 L 24 29.302734 L 37.189453 42.5 L 42.583984 37.103516 L 29.394531 23.90625 L 31.607422 21.691406 L 31.607422 16.539062 L 33.814453 14.330078 L 33.814453 18.363281 L 35.697266 20.261719 L 42.146484 13.808594 L 44.080078 15.742188 C 44.080078 15.742188 43.884829 10.521361 40.501953 7.1367188 C 37.119078 3.7520764 32.914062 6.6484375 32.914062 6.6484375 L 25.962891 13.605469 L 27.431641 15.076172 L 24 18.509766 L 20.568359 15.076172 L 22.037109 13.605469 L 15.085938 6.6484375 C 15.085938 6.6484375 13.442593 5.5183509 11.384766 5.4960938 z " />
  </g>
</svg>

<svg width="48" height="48" version="1.1" viewBox="0 0 48 48" xmlns="http://www.w3.org/2000/svg">
 <path d="m11.385 5.4961c-1.2347-0.013354-2.6181 0.37138-3.8867 1.6406-3.3829 3.3846-3.5781 8.6055-3.5781 8.6055l1.9336-1.9336 6.4492 6.4531 1.8828-1.8984v-4.0332l2.207 2.209v5.1523l2.2129 2.2148-13.189 13.197 5.3945 5.3965 13.189-13.197 13.189 13.197 5.3945-5.3965-13.189-13.197 2.2129-2.2148v-5.1523l2.207-2.209v4.0332l1.8828 1.8984 6.4492-6.4531 1.9336 1.9336s-0.19525-5.2208-3.5781-8.6055c-3.3829-3.3846-7.5879-0.48828-7.5879-0.48828l-6.9512 6.957 1.4688 1.4707-3.4316 3.4336-3.4316-3.4336 1.4688-1.4707-6.9512-6.957s-1.6433-1.1301-3.7012-1.1523z" fill="none" stroke="#fff" stroke-linecap="round" stroke-linejoin="round"/>
</svg>
